X:1
T: Miss Elphinstone
C:
R:Strathspey
Q: 128
K:A
M:4/4
L:1/16
|:c2|A4 E2FG AGFE F3C|DF3 E3C B,B3 B3d|((3c2d2e2) ((3A2B2c2) ((3d2e2f2) B3A|((3G2A2B2) E3d cA3 A2c2|
A4 E2FG AGFE F3C|DF3 E3C B,B3 B3d|((3c2d2e2) ((3A2B2c2) ((3d2e2f2) B3A|((3G2A2B2) E3d cA3 A2fg|
agfe ca3 d3b c3a|Aa3 c3a BBB2 B3g|agfe ca3 d3b c3a|Fd3 B3e cA3 A2fg|
agfe ca3 d3b c3a|Aa3 c3a fedc Bcdf|edcB A3E FA3 D3f|ec3 a3c AAA2 A2:|
